src/assets/icons/logo.svg

<svg width="156" height="50" viewBox="0 0 156 50" fill="none" xmlns="http://www.w3.org/2000/svg">
    <rect width="156" height="50" fill="#1E1E1E" opacity="0"/>
    <g id="UI kit ">
        <rect width="2011" height="5886" transform="translate(-974 -2120)" fill="#fff" opacity="0"/>
        <g id="Logo">
            <g id="inqud">
                <path d="M63.927 21.8857H69.0787V40.5516H63.927V21.8857ZM66.5402 19.7391C65.7936 19.7391 65.1651 19.4902 64.6549 18.9925C64.1447 18.4947 63.8896 17.8787 63.8896 17.1446C63.8896 16.4104 64.1447 15.7944 64.6549 15.2966C65.1651 14.7989 65.7873 14.55 66.5215 14.55C67.2557 14.55 67.8717 14.7989 68.3694 15.2966C68.8796 15.7944 69.1347 16.4104 69.1347 17.1446C69.1347 17.8787 68.8858 18.4947 68.3881 18.9925C67.9028 19.4902 67.2868 19.7391 66.5402 19.7391Z"
                      fill="#517185"/>
                <path d="M90.1454 28.6801V40.5516H84.9936V30.0987C84.9936 29.4392 84.8318 28.8481 84.5083 28.3254C84.1972 27.7903 83.7741 27.3673 83.239 27.0562C82.7164 26.7451 82.1315 26.5895 81.4844 26.5895C80.8374 26.5895 80.2463 26.7451 79.7112 27.0562C79.1761 27.3673 78.753 27.7903 78.4419 28.3254C78.1308 28.8481 77.9753 29.4392 77.9753 30.0987V40.5516H72.8235L72.8049 21.8857H77.9566L77.9753 23.267C78.5975 22.6697 79.3254 22.203 80.1592 21.867C81.0054 21.531 81.8951 21.363 82.8284 21.363C84.1848 21.363 85.4105 21.6928 86.5055 22.3523C87.613 23.0119 88.4965 23.8954 89.1561 25.0029C89.8156 26.098 90.1454 27.3237 90.1454 28.6801Z"
                      fill="#517185"/>
                <path d="M102.21 41.0743C100.406 41.0743 98.7573 40.6325 97.264 39.749C95.7832 38.8655 94.601 37.6771 93.7175 36.1838C92.834 34.6905 92.3922 33.0355 92.3922 31.2187C92.3922 29.8623 92.6473 28.593 93.1575 27.4108C93.6677 26.2286 94.3708 25.1896 95.2668 24.2936C96.1752 23.3852 97.2205 22.6759 98.4026 22.1657C99.5848 21.6555 100.854 21.4004 102.21 21.4004C103.293 21.4004 104.251 21.6368 105.085 22.1097C105.919 22.5701 106.628 23.1674 107.213 23.9016V21.8857H112.365V49.9998H107.213V38.573C106.628 39.2948 105.919 39.8921 105.085 40.365C104.251 40.8378 103.293 41.0743 102.21 41.0743ZM102.285 26.3468C101.426 26.3468 100.649 26.5708 99.9519 27.0188C99.255 27.4544 98.7013 28.0454 98.2906 28.7921C97.88 29.5263 97.6746 30.3351 97.6746 31.2187C97.6746 32.1271 97.88 32.9484 98.2906 33.6826C98.7013 34.4167 99.255 35.0016 99.9519 35.4371C100.649 35.8727 101.426 36.0905 102.285 36.0905C103.131 36.0905 103.89 35.8727 104.562 35.4371C105.247 35.0016 105.782 34.4167 106.168 33.6826C106.566 32.9359 106.765 32.1146 106.765 31.2187C106.765 30.3227 106.566 29.5076 106.168 28.7734C105.782 28.0392 105.247 27.4544 104.562 27.0188C103.89 26.5708 103.131 26.3468 102.285 26.3468Z"
                      fill="#517185"/>
                <path d="M115.405 33.7199V21.8857H120.557V32.3013C120.557 32.9608 120.712 33.5581 121.023 34.0932C121.347 34.6158 121.776 35.0327 122.311 35.3438C122.846 35.6549 123.431 35.8105 124.066 35.8105C124.713 35.8105 125.304 35.6549 125.839 35.3438C126.374 35.0327 126.797 34.6158 127.108 34.0932C127.42 33.5581 127.575 32.9608 127.575 32.3013V21.8857H132.727L132.746 40.5516H127.594L127.575 39.133C126.953 39.7303 126.219 40.197 125.373 40.5329C124.539 40.8689 123.655 41.0369 122.722 41.0369C121.378 41.0369 120.152 40.7072 119.045 40.0476C117.937 39.3881 117.054 38.5108 116.394 37.4157C115.735 36.3082 115.405 35.0763 115.405 33.7199Z"
                      fill="#517185"/>
                <path d="M149.849 12.5527H155.001V40.5516H149.849V38.573C149.277 39.2948 148.567 39.8859 147.721 40.3463C146.875 40.8067 145.911 41.0369 144.828 41.0369C143.472 41.0369 142.202 40.7818 141.02 40.2716C139.838 39.7614 138.793 39.0583 137.884 38.1624C136.989 37.254 136.285 36.2087 135.775 35.0265C135.265 33.8443 135.01 32.575 135.01 31.2187C135.01 29.8623 135.265 28.593 135.775 27.4108C136.285 26.2286 136.989 25.1896 137.884 24.2936C138.793 23.3852 139.838 22.6759 141.02 22.1657C142.202 21.6555 143.472 21.4004 144.828 21.4004C145.911 21.4004 146.875 21.6306 147.721 22.091C148.567 22.539 149.277 23.1301 149.849 23.8643V12.5527ZM144.903 36.0905C145.749 36.0905 146.514 35.8727 147.199 35.4371C147.883 35.0016 148.424 34.4167 148.823 33.6826C149.221 32.9359 149.42 32.1146 149.42 31.2187C149.42 30.3102 149.221 29.4889 148.823 28.7548C148.424 28.0206 147.883 27.4357 147.199 27.0002C146.514 26.5646 145.749 26.3468 144.903 26.3468C144.044 26.3468 143.266 26.5646 142.57 27.0002C141.873 27.4357 141.319 28.0268 140.908 28.7734C140.498 29.5076 140.292 30.3227 140.292 31.2187C140.292 32.1146 140.498 32.9359 140.908 33.6826C141.331 34.4167 141.891 35.0016 142.588 35.4371C143.285 35.8727 144.057 36.0905 144.903 36.0905Z"
                      fill="#517185"/>
            </g>
            <path id="Sign" fill-rule="evenodd" clip-rule="evenodd"
                  d="M27.9999 0.17815C27.0163 0.0605202 26.0152 0 24.9999 0C12.9051 0 2.81635 8.5888 0.5 20H21.9999C25.3136 20 27.9999 17.3137 27.9999 14V0.17815ZM25 50C26.0153 50 27.0164 49.9395 28 49.8218V28C28 24.6863 25.3137 22 22 22H0.17815C0.0605203 22.9836 0 23.9847 0 25C0 38.8071 11.1929 50 25 50ZM50 25C50 37.0948 41.4112 47.1836 30 49.4999V28C30 24.6863 32.6863 22 36 22H49.8218C49.9395 22.9836 50 23.9847 50 25ZM30 13.9999C30 17.3136 32.6863 19.9999 36 19.9999H49.4999C47.5115 10.2043 39.7957 2.48841 30 0.5V13.9999Z"
                  fill="#077453"/>
        </g>
    </g>
</svg>

<svg width="156" height="50" fill="none" xmlns="http://www.w3.org/2000/svg"><g fill="#517185"><path d="M63.927 21.886h5.152v18.666h-5.152V21.886zm2.613-2.147c-.746 0-1.375-.249-1.885-.747-.51-.497-.765-1.113-.765-1.847 0-.735.255-1.35.765-1.848s1.132-.747 1.867-.747c.734 0 1.35.249 1.847.747.51.497.766 1.113.766 1.848 0 .734-.25 1.35-.747 1.848-.485.497-1.101.746-1.848.746zM90.145 28.68v11.872h-5.151V30.099a3.3 3.3 0 0 0-.486-1.774 3.45 3.45 0 0 0-1.269-1.269 3.365 3.365 0 0 0-1.755-.466c-.647 0-1.238.155-1.773.466a3.45 3.45 0 0 0-1.27 1.27 3.4 3.4 0 0 0-.466 1.773v10.453h-5.151l-.02-18.666h5.153l.018 1.381a6.774 6.774 0 0 1 2.184-1.4 7.166 7.166 0 0 1 2.67-.504c1.356 0 2.582.33 3.677.99a7.513 7.513 0 0 1 2.65 2.65c.66 1.095.99 2.32.99 3.677zM102.21 41.074c-1.804 0-3.453-.441-4.946-1.325a10.036 10.036 0 0 1-3.546-3.565c-.884-1.493-1.326-3.148-1.326-4.965 0-1.357.255-2.626.766-3.808a9.998 9.998 0 0 1 5.245-5.245 9.505 9.505 0 0 1 3.807-.766c1.083 0 2.041.237 2.875.71a7.045 7.045 0 0 1 2.128 1.792v-2.016h5.152V50h-5.152V38.573a7.42 7.42 0 0 1-2.128 1.792c-.834.473-1.792.71-2.875.71zm.075-14.727c-.859 0-1.636.224-2.333.672a4.747 4.747 0 0 0-1.661 1.773 4.887 4.887 0 0 0-.616 2.427c0 .908.205 1.73.616 2.464.41.734.964 1.319 1.66 1.754a4.311 4.311 0 0 0 2.334.654c.846 0 1.605-.218 2.277-.654a4.546 4.546 0 0 0 1.606-1.754 5.155 5.155 0 0 0 .597-2.464c0-.896-.199-1.711-.597-2.446a4.546 4.546 0 0 0-1.606-1.754 4.012 4.012 0 0 0-2.277-.672zM115.405 33.72V21.886h5.152V32.3a3.5 3.5 0 0 0 .466 1.792c.324.523.753.94 1.288 1.25a3.43 3.43 0 0 0 1.755.467c.647 0 1.238-.155 1.773-.466a3.495 3.495 0 0 0 1.269-1.25 3.491 3.491 0 0 0 .467-1.793V21.886h5.152l.019 18.666h-5.152l-.019-1.419a6.723 6.723 0 0 1-2.202 1.4 7.028 7.028 0 0 1-2.651.504c-1.344 0-2.57-.33-3.677-.99a7.562 7.562 0 0 1-2.651-2.631c-.659-1.108-.989-2.34-.989-3.696zM149.849 12.553h5.152v27.999h-5.152v-1.979a6.868 6.868 0 0 1-2.128 1.773c-.846.46-1.81.69-2.893.69a9.507 9.507 0 0 1-3.808-.764 10.167 10.167 0 0 1-3.136-2.11 10.169 10.169 0 0 1-2.109-3.136 9.51 9.51 0 0 1-.765-3.807 9.51 9.51 0 0 1 .765-3.808 10.007 10.007 0 0 1 5.245-5.245 9.507 9.507 0 0 1 3.808-.766c1.083 0 2.047.23 2.893.691a6.544 6.544 0 0 1 2.128 1.773V12.553zm-4.946 23.537c.846 0 1.611-.217 2.296-.653a4.701 4.701 0 0 0 1.624-1.754 5.155 5.155 0 0 0 .597-2.464c0-.909-.199-1.73-.597-2.464A4.7 4.7 0 0 0 147.199 27a4.189 4.189 0 0 0-2.296-.653c-.859 0-1.637.218-2.333.653a4.75 4.75 0 0 0-1.662 1.773 4.93 4.93 0 0 0-.616 2.446c0 .896.206 1.717.616 2.464a4.939 4.939 0 0 0 1.68 1.754 4.282 4.282 0 0 0 2.315.654z"/></g><path fill-rule="evenodd" clip-rule="evenodd" d="M28 .178A25.256 25.256 0 0 0 25 0C12.905 0 2.816 8.589.5 20H22a6 6 0 0 0 6-6V.178zM25 50c1.015 0 2.016-.06 3-.178V28a6 6 0 0 0-6-6H.178A25.256 25.256 0 0 0 0 25c0 13.807 11.193 25 25 25zm25-25c0 12.095-8.589 22.184-20 24.5V28a6 6 0 0 1 6-6h13.822c.117.984.178 1.985.178 3zM30 14a6 6 0 0 0 6 6h13.5C47.51 10.204 39.796 2.488 30 .5V14z" fill="#077453"/></svg>
